icon-svg/nginx.svg

<?xml version="1.0" encoding="UTF-8" standalone="no"?>
<svg
   id="Livello_1"
   data-name="Livello 1"
   viewBox="0 0 24 24"
   version="1.1"
   width="24"
   height="24"
   xmlns="http://www.w3.org/2000/svg"
   xmlns:svg="http://www.w3.org/2000/svg">
  <path id="Colore_riempimento_1" fill="#44739e" data-name="Colore riempimento 1" class="cls-1"
     d="M 11.789062,0.25976562 C 9.8590644,1.2497646 7.9399981,2.2504697 6,3.2304688 4.3700016,4.0604679 2.7493734,4.9007039 1.109375,5.7207031 A 1.27,1.27 0 0 0 0.22070312,7.0195312 c 0.04,3.3999968 0.04,6.7662798 0,10.0996098 a 1.28,1.28 0 0 0 0.89843748,1.291015 c 3.3399967,1.629999 6.6700034,3.320002 10.0000004,5 0.239999,0.12 0.45164,0.270157 0.68164,0.410156 h 0.419922 c 0.949999,-0.509999 1.859376,-1.019766 2.859375,-1.509765 2.599998,-1.319999 5.200081,-2.639689 7.830078,-3.929688 A 1.32,1.32 0 0 0 23.820312,17 c 10e-7,-3.209997 -0.06,-6.430628 0,-9.640625 A 1.72,1.72 0 0 0 22.650391,5.5507812 C 19.340394,4.0007828 16.080778,2.269139 12.800781,0.61914062 a 5.8,5.8 0 0 1 -0.589843,-0.359375 z M 6.4394531,6.0703125 a 3,3 0 0 1 2.5605469,1 c 1.999998,2.049998 3.919455,4.0696115 5.939453,6.0996095 a 0.51,0.51 0 0 0 0.160156,0.08984 c 0,-1.829999 -0.01023,-3.6592209 0.0098,-5.4492191 A 1.44,1.44 0 0 1 15.269531,7.140625 0.27,0.27 0 0 1 15.410156,7 l 0.128906,-0.060547 0.0918,-0.070312 c 0.21,-0.1699998 0.358594,-0.2694533 0.558594,-0.4394531 a 1.61,1.61 0 0 1 1.570313,-0.2402344 1.22,1.22 0 0 1 0.939453,1 4.46,4.46 0 0 1 0,0.7304688 c 0,2.6899967 -0.1,5.3900807 0,8.0800777 0.04,1.079999 -0.578751,1.58 -1.46875,2 a 1,1 0 0 1 -0.691407,0 7.47,7.47 0 0 1 -2.568359,-1.710938 c -0.849999,-1.039998 -1.901563,-1.898438 -2.851562,-2.898437 -0.46,-0.46 -0.85836,-0.990938 -1.3183598,-1.460937 C 9.4707816,11.609688 9.1099996,11.319531 8.75,11.019531 a 0.14,0.14 0 0 0 -0.2207031,0.06055 v 5.13086 A 2.88,2.88 0 0 1 8.3398438,16.949219 V 17 L 8.1308594,17.230469 7.6992188,17.490234 A 2.84,2.84 0 0 1 6.2890625,17.949219 C 5.4790633,17.859219 5,16.629219 5,16.449219 V 7.4492188 C 5,6.6492195 5.559454,6.1503124 6.4394531,6.0703125 Z" />
</svg>

<svg xmlns="http://www.w3.org/2000/svg" data-name="Livello 1" viewBox="0 0 24 24"><path fill="#44739e" d="M11.789.2598C9.859 1.2498 7.94 2.2505 6 3.2305c-1.63.83-3.2506 1.6702-4.8906 2.4902a1.27 1.27 0 0 0-.8887 1.2988q.06 5.0998 0 10.0996a1.28 1.28 0 0 0 .8984 1.291c3.34 1.63 6.67 3.32 10 5 .24.12.4517.2702.6817.4102h.4199c.95-.51 1.8594-1.0198 2.8594-1.5098 2.6-1.32 5.2-2.6396 7.83-3.9296A1.32 1.32 0 0 0 23.8204 17c0-3.21-.06-6.4306 0-9.6406a1.72 1.72 0 0 0-1.17-1.8086c-3.31-1.55-6.5695-3.2817-9.8495-4.9317a5.8 5.8 0 0 1-.5899-.3593zM6.4396 6.0703a3 3 0 0 1 2.5605 1c2 2.05 3.9195 4.0696 5.9395 6.0996a.51.51 0 0 0 .1601.0899c0-1.83-.0102-3.6593.0098-5.4493a1.44 1.44 0 0 1 .1601-.6699A.27.27 0 0 1 15.4102 7l.1289-.0605.0918-.0704c.21-.17.3586-.2694.5586-.4394a1.61 1.61 0 0 1 1.5703-.2402 1.22 1.22 0 0 1 .9394 1 4.46 4.46 0 0 1 0 .7304c0 2.69-.1 5.3901 0 8.0801.04 1.08-.5787 1.58-1.4687 2a1 1 0 0 1-.6914 0 7.47 7.47 0 0 1-2.5684-1.711c-.85-1.04-1.9016-1.8984-2.8516-2.8984-.46-.46-.8583-.991-1.3183-1.461-.33-.32-.6908-.61-1.0508-.91a.14.14 0 0 0-.2207.0605v5.1308a2.88 2.88 0 0 1-.1895.7383V17l-.209.2305-.4316.2597a2.84 2.84 0 0 1-1.4101.459c-.81-.09-1.2891-1.32-1.2891-1.5v-9c0-.8.5595-1.2989 1.4395-1.3789" class="cls-1" data-name="Colore riempimento 1"/></svg>
